X:9160
T:Lady Mary Hay's Scots Measure
R:Other
O:Scotland
M:4/4
C:Niel Gow
K:Em
GF|\
E2E2 B3G|E2B2 ef ga|ba ge fd e^c|d2D2 D2GF|\
E2E2 B3G|E2B2 ef ga|
ba ge fb B^d|e2E2 E2:|\
gf|\
e2e2 e3E2|e^d ef gf ge|fg ab ag fe|f2d2 d2gf|
e2e2 e3B|e^d ef gf ge|fg ac' bg af|g2e2 e2gf|\
e2E2 e2f2|gf ga ba ge|
fg af d'a bg|f2d2 d2ba|\
ga ba gf ge|fg ag fe f^d|ec BA Ge F^d|e2E2 E2||
|:GF|\
EG BG Ee ^de|Ee Fe Ge EB|ef ge fd e^c|d2D2D2GF|\
Ee ^de Ee Fe|Ge Fe Ge EB|
ef ge fb B^d|e2E2 E2::\
ba|\
gf ef ga ba|ge ^de Ee Ge|
Be ge ga bg|fg afd2ba|\
gf ef ga ba|ge ^de Be ge|fa bc' ba gf|g2e2 e2:|


